svgs/regular/hand-holding-medical.svg

<svg xmlns="http://www.w3.org/2000/svg" viewBox="0 0 576 512"><!--! Font Awesome Pro 6.0.0-alpha3 by @fontawesome - https://fontawesome.com License - https://fontawesome.com/license (Commercial License) --><path d="M551.1 312.1c-31.13-26.36-69.26-16.12-88.39-1.75l-60.38 45.47h-3.375C399.7 317.9 369.3 288 330.7 288H186.7C158.3 288 130.3 297.4 108.1 314.4l-28.38 21.74H24C10.8 336.1 0 346.9 0 360.1c0 13.19 10.8 23.99 24 23.99l72-.0596l41.26-31.42c14-10.74 31.5-16.49 49.51-16.49h144c27.88 0 29 40.23-1.125 40.23H269.8c-7.5 0-13.75 6.123-13.75 13.74c0 7.619 6.252 13.87 13.75 13.87h134.6c9.711 0 19.16-3.158 26.92-8.996l61.26-46.1c8.252-6.121 20.5-6.621 28.38 0c10.12 8.496 9.375 23.11-.877 30.73l-100.6 75.46c-7.75 5.746-17.13 8.994-26.88 8.994H24C10.8 464 0 474.8 0 488C0 501.2 10.8 512 24 512h368.8c20 0 39.38-6.496 55.26-18.49l100.8-75.83c16.63-12.49 26.5-31.48 27.13-51.97C576.7 345.2 567.8 325.6 551.1 312.1zM160 176h64v64C224 248.8 231.2 256 240 256h64C312.8 256 320 248.8 320 240v-64h64c8.836 0 16-7.164 16-16V96c0-8.838-7.164-16-16-16h-64v-64C320 7.162 312.8 0 304 0h-64C231.2 0 224 7.162 224 16v64H160C151.2 80 144 87.16 144 96v64C144 168.8 151.2 176 160 176z"/></svg>

<svg xmlns="http://www.w3.org/2000/svg" viewBox="0 0 576 512"><!-- Font Awesome Pro 5.15.3 by @fontawesome - https://fontawesome.com License - https://fontawesome.com/license (Commercial License) --><path d="M160,176h64v64a16,16,0,0,0,16,16h64a16,16,0,0,0,16-16V176h64a16,16,0,0,0,16-16V96a16,16,0,0,0-16-16H320V16A16,16,0,0,0,304,0H240a16,16,0,0,0-16,16V80H160a16,16,0,0,0-16,16v64A16,16,0,0,0,160,176ZM552,312c-31.11-26.4-69.32-16.09-88.41-1.8l-60.42,45.49h-3.29c-.21-38-30.51-67.78-69.21-67.78h-144a130.4,130.4,0,0,0-78.51,26.29L79.8,336H16A16,16,0,0,0,0,352v16a16,16,0,0,0,16,16H96l41.3-31.49A81.37,81.37,0,0,1,186.72,336h144c27.89,0,29.09,40.2-1.11,40.2H269.82A13.82,13.82,0,0,0,256,390v.1a13.83,13.83,0,0,0,13.79,13.81H404.34a45,45,0,0,0,26.91-9l61.3-46.1c8.3-6.21,20.5-6.71,28.41,0a19.28,19.28,0,0,1-.91,30.69L419.45,455a45.16,45.16,0,0,1-26.91,9H16A16,16,0,0,0,0,480v16a16,16,0,0,0,16,16H392.84A91.69,91.69,0,0,0,448,493.5l100.81-75.89A67.32,67.32,0,0,0,552,312Z"/></svg>
